images/ic_live.svg

<svg width="21" height="16" viewBox="0 0 21 16" fill="none" xmlns="http://www.w3.org/2000/svg">
<path d="M10.5066 4.61523C8.82068 4.61523 7.4491 5.98682 7.4491 7.67278C7.4491 9.35874 8.82068 10.7303 10.5066 10.7303C12.1923 10.7303 13.5645 9.35874 13.5645 7.67278C13.5645 5.98682 12.1926 4.61523 10.5066 4.61523Z" fill="#1B76BC"/>
<path d="M7.10874 4.27597C7.44679 3.93818 7.44679 3.39016 7.10874 3.05237C6.77095 2.71431 6.22293 2.71431 5.88514 3.05237C3.33728 5.6005 3.33728 9.74665 5.88514 12.2948C6.05414 12.4638 6.2757 12.5484 6.49721 12.5484C6.71844 12.5484 6.93995 12.4638 7.10874 12.2951C7.44653 11.957 7.44653 11.409 7.10874 11.0712C5.23554 9.19778 5.23554 6.14943 7.10874 4.27597Z" fill="#1B76BC"/>
<path d="M15.1279 3.05227C14.7898 2.71448 14.2424 2.71421 13.9043 3.05227C13.5662 3.39033 13.5662 3.93808 13.9043 4.27613C14.8149 5.18675 15.3165 6.39334 15.3165 7.67345C15.3165 8.95356 14.8149 10.1602 13.9043 11.0711C13.5662 11.4089 13.5662 11.9569 13.9043 12.2947C14.0734 12.4637 14.2946 12.5482 14.5161 12.5482C14.7373 12.5482 14.9588 12.4637 15.1279 12.2947C16.3656 11.057 17.0472 9.41597 17.0472 7.67345C17.0472 5.93098 16.3656 4.28998 15.1279 3.05227Z" fill="#1B76BC"/>
<path d="M1.73066 7.68713C1.73066 5.34665 2.64704 3.1415 4.31114 1.47714C4.64919 1.13935 4.64919 0.591334 4.31114 0.253543C3.97334 -0.0845145 3.42533 -0.0845145 3.08754 0.253543C1.0964 2.24441 0 4.88456 0 7.68713C0 10.49 1.0964 13.1298 3.08754 15.1207C3.25627 15.2898 3.47783 15.3742 3.69934 15.3742C3.92058 15.3742 4.1424 15.2897 4.31114 15.1207C4.64919 14.7827 4.64919 14.2349 4.31114 13.8971C2.6471 12.233 1.73066 10.0276 1.73066 7.68713Z" fill="#1B76BC"/>
<path d="M17.9259 0.253343C17.5878 -0.0844477 17.0403 -0.0844477 16.7023 0.253343C16.3642 0.591401 16.3642 1.13947 16.7023 1.47721C20.1262 4.90136 20.1262 10.473 16.7023 13.8972C16.3642 14.235 16.3642 14.783 16.7023 15.1208C16.8713 15.2898 17.0926 15.3743 17.3141 15.3743C17.5356 15.3743 17.7568 15.2898 17.9259 15.1205C22.0248 11.0217 22.0248 4.35222 17.9259 0.253343Z" fill="#1B76BC"/>
</svg>

<svg xmlns="http://www.w3.org/2000/svg" fill="#1b76bc" viewBox="0 0 21 16"><path d="M10.507 4.615a3.06 3.06 0 0 0-3.058 3.058 3.06 3.06 0 0 0 3.058 3.058c1.686 0 3.058-1.372 3.058-3.058a3.06 3.06 0 0 0-3.058-3.058zM7.1 4.276c.338-.338.338-.886 0-1.224s-.886-.338-1.224 0c-2.548 2.548-2.548 6.694 0 9.242a.86.86 0 0 0 .612.254c.222 0 .443-.085.612-.253.338-.338.338-.886 0-1.224-1.873-1.873-1.873-4.922 0-6.795zm8.028-1.224c-.338-.338-.886-.338-1.224 0s-.338.886 0 1.224a4.8 4.8 0 0 1 1.412 3.397 4.78 4.78 0 0 1-1.412 3.398c-.338.338-.338.886 0 1.224a.86.86 0 0 0 .612.253.87.87 0 0 0 .612-.253c1.238-1.238 1.92-2.88 1.92-4.62s-.682-3.383-1.92-4.62zM1.73 7.687a8.73 8.73 0 0 1 2.58-6.21c.338-.338.338-.886 0-1.224s-.886-.338-1.224 0C1.096 2.244 0 4.885 0 7.687s1.096 5.443 3.088 7.434a.86.86 0 0 0 1.224 0c.338-.338.338-.886 0-1.224-1.664-1.664-2.58-3.87-2.58-6.2zM17.926.253c-.338-.338-.886-.338-1.224 0s-.338.886 0 1.224c3.424 3.424 3.424 8.996 0 12.42-.338.338-.338.886 0 1.224a.86.86 0 0 0 1.224 0c4.1-4.1 4.1-10.768 0-14.867z"/></svg>
